X:25003
T:Yarmouth Breakdown
R:Hornpipe
C:Trad.
O:England, East Anglia
Z:Paul Hardy's Session Tunebook 2015 (see www.paulhardy.net). Creative Commons cc by-nc-sa licenced.
M:4/4
L:1/8
Q:1/4=140
K:D
AG|"D"FA de fd Ad|fe dc B2 A2|"A"gf ed cA Bc|ed cB A2 AG|
"D"FA de fd Ad|fe dc B2 A2|"A"gf ed cA Bc|e2 dc "D"d2:|
|:AG|"D"FD FA dA FA|"Em"G2 FD "A"A,3D|CD EF GE CE|"D"DE FG "A"A2AG|
"D"FD FA dA FA|"Em"G2 FD "A"A3D|CD EF GE CE|E2 DC "D"D2:|

